X: 1
T: Blue Rain
M: 6/8
L: 1/8
R: jig
K: Cmaj
|:cGc ece|gag e3|fef def|edc BAG|
cGc ece|gag e3|gag fed|1c2c GAB:|2c2c cBA||
|:Gcc cBc|Gee ede|Gdd dcd|Gcc cBA|
Gcc cBc|Gee ede|gag fed|1c2c cBA:|2c2c GAB||
